src/lib/runemarks/svg/factions-chaos-bladeborn-eyes-of-the-nine.svg

<svg xmlns="http://www.w3.org/2000/svg" xml:space="preserve" fill-rule="evenodd" stroke-linejoin="round" stroke-miterlimit="2" clip-rule="evenodd" viewBox="0 0 300 300"><path fill-rule="nonzero" d="M88.354 145.375c-3.687-14.037 2.897-27.547 12.579-39.964 8.102-10.574 19.466-18.291 32.571-21.694l.405-.102c5.489-1.641 11.829-2.593 18.371-2.593 22.564 0 42.496 11.222 54.529 28.378l.142.223c8.142 10.168 13.065 23.234 13.065 37.412a60.1 60.1 0 0 1-7.15 28.5l.162-.304c-9.581 21.977-30.95 37.148-55.925 37.595h-.061c-27.872 1.56-47.48-11.222-62.773-33.239-6.948-9.966-6.198-20.762-5.914-34.192v-.02z"/><path fill-rule="nonzero" d="M50.943 100.549c0-44.319 15.374-70.672 40.146-92.569a41.8 41.8 0 0 1 10.736-6.32l.264-.102c2.391-.811 5.164-1.377 8.041-1.56h.102c-.506 2.734-.891 5.53-1.621 8.284-1.418 5.246-2.897 10.493-4.518 15.738-1.438 3.464-2.248 7.474-2.248 11.687 0 10.31 4.983 19.466 12.66 25.198l.081.061c1.924 1.479 4.355 2.208 6.279 3.606 6.806 5.186 6.279 7.029-2.147 11.809-26.474 15.151-43.61 36.42-43.915 68.463-.425 2.411-1.134 4.577-2.147 6.562l.061-.142-4.74-5.105c-10.594-11.606-17.075-27.143-17.075-44.157 0-.506 0-1.054.02-1.56v.081l.02.02zm196.823 101.704c5.105 23.273-6.866 41.869-17.602 59.835-9.298 15.516-24.691 26.211-38.728 37.595-.892.749-3.18 0-4.74-.445 0 0-.445-2.066 0-3.019 3.098-7.92 6.806-15.657 9.459-23.699 6.441-19.263 2.066-30.566-14.787-41.443-7.393-4.577-7.393-5.024 0-9.075 20.175-10.391 35.913-27.001 44.987-47.257l.244-.628c1.357-5.205 2.147-11.181 2.147-17.339v-.669c.79-2.066 1.802-3.848 3.059-5.428l-.041.041c1.479 1.054 3.484 1.762 4.234 3.18 8.65 14.989 16.266 30.363 11.768 48.39v-.041z"/></svg>

<?xml version="1.0" encoding="UTF-8" standalone="no"?>
<!DOCTYPE svg PUBLIC "-//W3C//DTD SVG 1.1//EN" "http://www.w3.org/Graphics/SVG/1.1/DTD/svg11.dtd">
<svg width="100%" height="100%" viewBox="0 0 300 300" version="1.1" xmlns="http://www.w3.org/2000/svg" xmlns:xlink="http://www.w3.org/1999/xlink" xml:space="preserve" xmlns:serif="http://www.serif.com/" style="fill-rule:evenodd;clip-rule:evenodd;stroke-linejoin:round;stroke-miterlimit:2;">
    <path d="M88.354,145.375C84.667,131.338 91.251,117.828 100.933,105.411C109.035,94.837 120.399,87.12 133.504,83.717L133.909,83.615C139.398,81.974 145.738,81.022 152.28,81.022C174.844,81.022 194.776,92.244 206.809,109.4L206.951,109.623C215.093,119.791 220.016,132.857 220.016,147.035C220.027,156.98 217.57,166.773 212.866,175.535L213.028,175.231C203.447,197.208 182.078,212.379 157.103,212.826L157.042,212.826C129.17,214.386 109.562,201.604 94.269,179.587C87.321,169.621 88.071,158.825 88.355,145.395L88.355,145.375L88.354,145.375Z" style="fill-rule:nonzero;"/>
    <path d="M50.943,100.549C50.943,56.23 66.317,29.877 91.089,7.98C94.332,5.349 97.951,3.219 101.825,1.66L102.089,1.558C104.48,0.747 107.253,0.181 110.13,-0.002L110.232,-0.002C109.726,2.732 109.341,5.528 108.611,8.282C107.193,13.528 105.714,18.775 104.093,24.02C102.655,27.484 101.845,31.494 101.845,35.707C101.845,46.017 106.828,55.173 114.505,60.905L114.586,60.966C116.51,62.445 118.941,63.174 120.865,64.572C127.671,69.758 127.144,71.601 118.718,76.381C92.244,91.532 75.108,112.801 74.803,144.844C74.378,147.255 73.669,149.421 72.656,151.406L72.717,151.264L67.977,146.159C57.383,134.553 50.902,119.016 50.902,102.002C50.902,101.496 50.902,100.948 50.922,100.442L50.922,100.523L50.942,100.543L50.943,100.549ZM247.766,202.253C252.871,225.526 240.9,244.122 230.164,262.088C220.866,277.604 205.473,288.299 191.436,299.683C190.544,300.432 188.256,299.683 186.696,299.238C186.696,299.238 186.251,297.172 186.696,296.219C189.794,288.299 193.502,280.562 196.155,272.52C202.596,253.257 198.221,241.954 181.368,231.077C173.975,226.5 173.975,226.053 181.368,222.002C201.543,211.611 217.281,195.001 226.355,174.745L226.599,174.117C227.956,168.912 228.746,162.936 228.746,156.778L228.746,156.109C229.536,154.043 230.548,152.261 231.805,150.681L231.764,150.722C233.243,151.776 235.248,152.484 235.998,153.902C244.648,168.891 252.264,184.265 247.766,202.292L247.766,202.251L247.766,202.253Z" style="fill-rule:nonzero;"/>
</svg>
